X: 852
T: Albuquerque, The
R: jig
M: 6/8
K: Gmajor
dc|:BGG FGc|ecc efg|aff ged|dDD FED|
BGG FGB|ecc efg|DFA cAD|DGF Gdc:|
|:Bdd dBd|ecA G2 F|EFG FGA|BcB AGF|
GBd dBG|Bce fga|bgg fed|cAF Ddc:|

